!!!OTL: Geistlicher Weckruf
!!!ARE: Europa, Mitteleuropa, Deutschland
!!!SCT: A0396B
!!!YEM: Copyright 1995, estate of Helmut Schaffrath.
**kern
*ICvox
*Ivox
!! Mixed meters:  4/2; 6/2
*M6/2
*k[f#]
*G:
{2g
=1
2g
2g
2a
2b
=2
1cc
1cc
2r}
{2b
=3
1a
2g
1cc
2b
=4
*M4/2
1cc
2r}
{2cc
=5
2b
2b
2cc
2cc
=6
*M6/2
1dd
1dd
2r}
{2cc
=7
2b
2cc
2dd
2cc
1a
=8
*M4/2
1g
2r}
{2g
=9
2a
2a
2dd
2dd
=10
1cc
1b}
=11
{1a
=12
*M6/2
1g
2fn
2g
1e
=13
*M4/2
1d
2r}
{2d
=14
*M6/2
1a
2a
2a
2b
2cc
=15
1dd
1dd
2r}
{2cc
=16
2b
2a
2g
2b
1a
=17
1.g}
==
!!!AGN: Romanze, Ballade, Lied, religioeses Lied
!! Souterliedekens 1540 ad Ps. 68
!!!ONB: ESAC (Essen Associative Code) Database: ALTDEU
!!!AMT: irregular
!!!AIN: vox
!!!EED: Helmut Schaffrath
!!!EEV: 1.0
*-
